packages/core/src/svgs/networks/branded/zeta-chain.svg

<svg width="24" height="24" viewBox="0 0 24 24" fill="none" xmlns="http://www.w3.org/2000/svg">
<path d="M17.5088 16.3523V19.0111H6.54003C6.69134 17.2613 7.25601 16.03 9.20876 14.2987L17.5088 7.21791V13.4314H20.4965V2H3.50622V7.69816H6.4929V4.98777H15.5186L7.2593 12.0356L7.23957 12.0543C3.77813 15.1189 3.50293 17.5923 3.50293 20.5067V22H20.4954V16.3534H17.5076L17.5088 16.3523Z" fill="#005741"/>
</svg>

<svg xmlns="http://www.w3.org/2000/svg" width="24" height="24" fill="none" viewBox="0 0 24 24">
    <path fill="#005741" d="M17.509 16.352v2.66H6.54c.151-1.75.716-2.982 2.669-4.713l8.3-7.081v6.213h2.988V2H3.507v5.698h2.986v-2.71h9.026l-8.26 7.048-.02.018c-3.46 3.065-3.736 5.538-3.736 8.453V22h16.992v-5.647h-2.987"/>
</svg>
